X:523
T:Lament for Will Starr
C:Angus Fitchet
S:Dick Rutter, Edinburgh
Z:Nigel Gatherer
M:4/4
L:1/8
Q:60
K:Cm
z ^F    |  G>E    CE/G/ A>F  D2     | Gc        cd/e/ d>=B G2 | 
           A>F    DA    G>E  CD     | EG        G,=B, C2     :|
[A,2D2] | [G,E]>G BG    Ac   F2     | Gc        cd/e/ d>=B G2 | 
           A>F    DA    G>E  CD     | EG        G,=B, C2
[A,2D2] | [G,E]>G BG    Ac   F2     | [=A,F]>=A cd/e/ dB   B2 |
           g>f    ed    e>=B c_B/A/ | GF/E/     GG,   C3     |]
